X: 10052
T: BLUE EYED MARY
C:
%R: jig
B: Elias Howe "The Musician's Companion" Part 1 1842 p.5 #2
S: http://imslp.org/wiki/The_Musician's_Companion_(Howe,_Elias)
Z: 2015 John Chambers <jc:trillian.mit.edu>
M: 6/8
L: 1/8
K: G
% - - - - - - - - - - - - - - - - - - - - - - - - -
B/c/ |\
d2d dge | (d3 B2)d | dcc ABc | (e3 d2) B/c/ |\
d2d dge | (d3 B2d) | c2c A2A | G3 G2 :|
|: B |\
ABc ABc | d3 B2B | ABc ABc | d2z z2B/c/ |\
d2d dge | d3 g2g | a2a f2f | g2z z2 :|
% - - - - - - - - - - - - - - - - - - - - - - - - -


